icons/absolute-elevation-24.svg

<svg id="icons" xmlns="http://www.w3.org/2000/svg" viewBox="0 0 24 24"><defs><style>.cls-1{fill:none;}.cls-2{fill-rule:evenodd;}</style></defs><rect class="cls-1" width="24" height="24"/><path class="cls-2" d="M19.001,22.992a6.493,6.493,0,0,1-3.5-.88065,6.4813,6.4813,0,0,1-3.5.88065,6.493,6.493,0,0,1-3.5-.88065,6.4813,6.4813,0,0,1-3.5.88065,5.98643,5.98643,0,0,1-3.834-1.11893.49974.49974,0,1,1,.665-.7461,5.08061,5.08061,0,0,0,3.169.874,5.12848,5.12848,0,0,0,3.17187-.877l.13867-.0791.1709-.03711a.72162.72162,0,0,1,.21387.03809l.12109.07031a5.09054,5.09054,0,0,0,3.1836.88477,5.12848,5.12848,0,0,0,3.17187-.877l.13867-.08007.17188-.03614a.72005.72005,0,0,1,.21289.03809l.12109.07031a5.09054,5.09054,0,0,0,3.1836.88477,5.12848,5.12848,0,0,0,3.17187-.877A.50229.50229,0,0,1,22.5,21.00391a.49971.49971,0,0,1,.33594.86914A5.89371,5.89371,0,0,1,19.001,22.992ZM12,16h1v2H12Zm1-3H12v2h1Zm0-3H12v2h1ZM10.1,6.5a2.4,2.4,0,1,1,2.4,2.4A2.40256,2.40256,0,0,1,10.1,6.5Zm.9,0A1.5,1.5,0,1,0,12.5,5,1.50164,1.50164,0,0,0,11,6.5ZM4,20V19H2V17H4V16H2V14H4V13H2V11H4V10H2V8H4V7H2V5H4V4H2V2H1V20H4Z"/></svg>

<svg xmlns="http://www.w3.org/2000/svg" viewBox="0 0 24 24"><path fill="none" d="M0 0h24v24H0z"/><path d="M19.001 22.992a6.493 6.493 0 0 1-3.5-.88 6.481 6.481 0 0 1-3.5.88 6.493 6.493 0 0 1-3.5-.88 6.481 6.481 0 0 1-3.5.88 5.986 5.986 0 0 1-3.834-1.119.5.5 0 1 1 .665-.746 5.08 5.08 0 0 0 3.169.874 5.128 5.128 0 0 0 3.172-.877l.139-.08.17-.036a.722.722 0 0 1 .214.038l.121.07a5.09 5.09 0 0 0 3.184.885 5.128 5.128 0 0 0 3.172-.877l.139-.08.171-.036a.72.72 0 0 1 .213.038l.121.07a5.09 5.09 0 0 0 3.184.885 5.128 5.128 0 0 0 3.172-.877.502.502 0 0 1 .327-.12.5.5 0 0 1 .336.869A5.894 5.894 0 0 1 19 22.992zM12 16h1v2h-1zm1-3h-1v2h1zm0-3h-1v2h1zm-2.9-3.5a2.4 2.4 0 1 1 2.4 2.4 2.403 2.403 0 0 1-2.4-2.4zm.9 0A1.5 1.5 0 1 0 12.5 5 1.502 1.502 0 0 0 11 6.5zM4 20v-1H2v-2h2v-1H2v-2h2v-1H2v-2h2v-1H2V8h2V7H2V5h2V4H2V2H1v18h3z" fill-rule="evenodd"/></svg>
